public/images/twitter.svg

<svg fill="none" height="18" viewBox="0 0 18 18" width="18" xmlns="http://www.w3.org/2000/svg"><path d="m16.1523 5.32617v.49219c0 4.88674-3.6914 10.47654-10.47652 10.47654-2.10937 0-4.04297-.5976-5.660155-1.6523.28125.0351.5625.0703.878906.0703 1.722659 0 3.304689-.5977 4.570309-1.582-1.61718-.0352-2.98828-1.0899-3.44531-2.5664.24609.0351.45703.0703.70313.0703.3164 0 .66796-.0703.94922-.1407-1.6875-.3515-2.95313-1.82808-2.95313-3.62105v-.03516c.49219.28125 1.08984.42188 1.6875.45703-1.01953-.66797-1.652344-1.79297-1.652344-3.05859 0-.70313.175782-1.33594.492184-1.86328 1.82813 2.21484 4.57032 3.6914 7.62891 3.86718-.07031-.28125-.10547-.5625-.10547-.84375 0-2.03906 1.65237-3.6914 3.69137-3.6914 1.0547 0 2.0039.42187 2.7071 1.16015.8086-.17578 1.6172-.49218 2.3203-.91406-.2813.87891-.8438 1.58203-1.6172 2.03906.7383-.07031 1.4766-.28125 2.1094-.5625-.4922.73829-1.125 1.3711-1.8282 1.89844z" fill="#a37a56"/></svg>

<svg width="18" height="18" viewBox="0 0 18 18" fill="none" xmlns="http://www.w3.org/2000/svg">
<path d="M16.1523 5.32617C16.1523 5.50195 16.1523 5.64258 16.1523 5.81836C16.1523 10.7051 12.4609 16.2949 5.67578 16.2949C3.56641 16.2949 1.63281 15.6973 0.015625 14.6426C0.296875 14.6777 0.578125 14.7129 0.894531 14.7129C2.61719 14.7129 4.19922 14.1152 5.46484 13.1309C3.84766 13.0957 2.47656 12.041 2.01953 10.5645C2.26562 10.5996 2.47656 10.6348 2.72266 10.6348C3.03906 10.6348 3.39062 10.5645 3.67188 10.4941C1.98438 10.1426 0.71875 8.66602 0.71875 6.87305V6.83789C1.21094 7.11914 1.80859 7.25977 2.40625 7.29492C1.38672 6.62695 0.753906 5.50195 0.753906 4.23633C0.753906 3.5332 0.929688 2.90039 1.24609 2.37305C3.07422 4.58789 5.81641 6.06445 8.875 6.24023C8.80469 5.95898 8.76953 5.67773 8.76953 5.39648C8.76953 3.35742 10.4219 1.70508 12.4609 1.70508C13.5156 1.70508 14.4648 2.12695 15.168 2.86523C15.9766 2.68945 16.7852 2.37305 17.4883 1.95117C17.207 2.83008 16.6445 3.5332 15.8711 3.99023C16.6094 3.91992 17.3477 3.70898 17.9805 3.42773C17.4883 4.16602 16.8555 4.79883 16.1523 5.32617Z" fill="#A37A56"/>
</svg>
